builds/development/lbd/img/icons/icon-testarticle.svg

<svg xmlns="http://www.w3.org/2000/svg" viewBox="0 0 22 29"><g data-name="Calque 2"><g data-name="Icon test article" fill="#9a9fa9"><path d="M14.67 17.61H7.33a1.22 1.22 0 0 1 0-2.44h7.34a1.22 1.22 0 0 1 0 2.44zm0 5.05H7.33a1.23 1.23 0 0 1 0-2.45h7.34a1.23 1.23 0 0 1 0 2.45z"/><path d="M19.56 6.3h-2.45V3.78h-1.39A4.92 4.92 0 0 0 11 0a4.92 4.92 0 0 0-4.72 3.78H4.89V6.3H2.44A2.5 2.5 0 0 0 0 8.83v17.65A2.49 2.49 0 0 0 2.44 29h17.12A2.49 2.49 0 0 0 22 26.48V8.83a2.5 2.5 0 0 0-2.44-2.53zM11 2.52a2.46 2.46 0 0 1 2.12 1.26H8.88A2.46 2.46 0 0 1 11 2.52zM7.33 6.3h7.34v2.53H7.33zm12.23 20.18H2.44V8.83h2.45v2.52h12.22V8.83h2.45z" fill-rule="evenodd"/></g></g></svg>

<svg xmlns="http://www.w3.org/2000/svg" viewBox="0 0 22 29"><defs><style>.cls-1,.cls-2{fill:#9a9fa9;}.cls-2{fill-rule:evenodd;}</style></defs><title>icon-testarticle</title><g id="Calque_2" data-name="Calque 2"><g id="Icon_test_article" data-name="Icon test article"><path class="cls-1" d="M14.67,17.61H7.33a1.22,1.22,0,0,1,0-2.44h7.34a1.22,1.22,0,0,1,0,2.44Z"/><path class="cls-1" d="M14.67,22.66H7.33a1.23,1.23,0,0,1,0-2.45h7.34a1.23,1.23,0,0,1,0,2.45Z"/><path class="cls-2" d="M19.56,6.3H17.11V3.78H15.72A4.92,4.92,0,0,0,11,0,4.92,4.92,0,0,0,6.28,3.78H4.89V6.3H2.44A2.5,2.5,0,0,0,0,8.83V26.48A2.49,2.49,0,0,0,2.44,29H19.56A2.49,2.49,0,0,0,22,26.48V8.83A2.5,2.5,0,0,0,19.56,6.3ZM11,2.52a2.46,2.46,0,0,1,2.12,1.26H8.88A2.46,2.46,0,0,1,11,2.52ZM7.33,6.3h7.34V8.83H7.33ZM19.56,26.48H2.44V8.83H4.89v2.52H17.11V8.83h2.45Z"/></g></g></svg>
